X:422
T:Vallåt efter Lars Orre
B:EÖ nr 422
S:efter Lars Orre
R:Vallåt
O:Rot, Älvdalens sn, Dalarna
Z:Nils L
N:EÖ:s anmärkning: "Efter fiol. Fritt, långsamt, men varje fras med en viss rytm ('frasering')".
N:Jämför SvL Dalarna nr 551.
M:none
L:1/16
K:Am
He4>d4 | c2Ac B2A^G | A4>B4 | c2Bc d2ed | c4 HB2 ||
B2 | c2Bc d2cd | He4>B4 | c2Bc d2cd | e4>e4 | g2^fe d2^ce | 
d4>=f4 | e6 dc | c2cA B2B^G | A4>Ha4 | H=g2>f2ed c2Ac B2B^G HA4 ||

